src/assets/check.svg

<svg width="68" height="52" viewBox="0 0 68 52" fill="none" xmlns="http://www.w3.org/2000/svg">
<path fill-rule="evenodd" clip-rule="evenodd" d="M42.2822 16.1147C33.0885 24.6381 25.2941 31.8742 24.9614 32.195L24.3566 32.7782L17.0783 25.006C13.0752 20.7314 9.75041 17.2339 9.68985 17.2339C9.62915 17.2339 7.43004 19.2484 4.80275 21.7106L0.0258789 26.1873L0.378098 26.6054C0.571871 26.8353 5.89593 32.5329 12.2093 39.2666L23.6883 51.5096L24.3616 50.859C24.7321 50.5011 34.478 41.4665 46.0194 30.7823C57.5608 20.0979 67.2281 11.1386 67.5022 10.8727L68.0005 10.3896L63.5368 5.54416C61.0818 2.87915 59.0563 0.680569 59.0357 0.658257C59.0149 0.635944 51.476 7.59133 42.2822 16.1147Z" fill="#00AACB"/>
</svg>

<svg xmlns="http://www.w3.org/2000/svg" width="68" height="52" fill="none" viewBox="0 0 68 52"><path fill="#00aacb" fill-rule="evenodd" d="M42.282 16.115a9114 9114 0 0 0-17.32 16.08l-.605.583-7.279-7.772c-4.003-4.275-7.328-7.772-7.388-7.772s-2.26 2.014-4.887 4.477L.026 26.187l.352.418c.194.23 5.518 5.928 11.831 12.662L23.69 51.51l.673-.651c.37-.358 10.116-9.392 21.657-20.077a13918 13918 0 0 0 21.483-19.91l.499-.482-4.464-4.846L59.036.658c-.021-.022-7.56 6.933-16.754 15.457" clip-rule="evenodd"/></svg>
